X: 2
T: North Carolina Breakdown (©Arthur L. Smith 1937; R-150)
M: C|
Z: Transcribed to abc by Mary Lou Knack
R: reel
K: G
D2| "G"G2G2 EDEF| GFGA Bdef| "C"g2f2 edef| "D"gage dBAF|
"G"G2G2 EDEF| GFGA Bdef| "C"g2f2 edBA| "D"dBAF "G"G2 :|
|: d2| "C"[e2g2][e2-g2-] [e2g2][e2-g2-]| [e2g2]g2 gag2|    "G"[d2g2][d2-g2-] [d2g2][d2-g2-]| [d2g2][dg][dg] [B2g2][d2g2]|
"C"[e4g4] g2b2-| b2b2 agef| "G"gage dBAB| "D"dBAF "G"G2 :|

